assets/images/illustrations/big-logo.svg

<svg xmlns="http://www.w3.org/2000/svg" width="1920" height="259" fill="none" viewBox="0 0 1920 259"><path fill="#fff" d="M1758.7 259.375V67.949h48.96v60.277h43.47c22.89 0 40.43 5.845 52.6 17.536q18.27 17.535 18.27 46.395c0 12.908-2.56 24.476-7.67 34.705q-7.68 15.344-22.65 24.111-14.985 8.402-37.26 8.402zm48.96-37.262h39.08q9.87 0 16.08-4.019c4.38-2.679 7.55-6.21 9.5-10.594 2.19-4.384 3.28-9.376 3.28-14.978 0-5.358-.97-10.107-2.92-14.247-1.95-4.384-5.11-7.794-9.5-10.229q-6.21-4.019-16.8-4.019h-38.72zm-280.1 39.819v-43.473c5.84-.243 11.08-1.704 15.71-4.383 4.62-2.679 8.64-7.185 12.05-13.517q5.49-9.864 8.4-27.399c2.2-11.69 3.66-26.668 4.39-44.934l2.56-60.277h143.57v191.426h-48.96V110.691h-51.51l-.73 22.285c-.97 25.085-3.41 45.908-7.3 62.469q-5.85 24.841-16.44 39.454c-6.82 9.498-15.35 16.317-25.58 20.457-10.22 4.141-22.28 6.333-36.16 6.576m-359.64-2.557V67.949h126.76v42.742h-77.81v148.684zM468.312 305.77v-89.137h5.115q7.306 0 13.517-4.019 6.575-4.018 11.324-13.516 5.115-9.864 8.037-27.034 3.288-17.17 4.384-43.838l2.192-60.277H656.45v148.684h26.668v89.137h-42.742v-46.395H511.42v46.395zm66.853-89.137h72.333V109.23h-51.875l-1.096 23.746q-1.096 24.11-3.653 40.915-2.191 16.44-6.21 27.033-3.654 10.23-9.499 15.709m-271.259 42.742V67.949h48.953v73.063h77.447V67.949h48.952v191.426h-48.952v-77.447h-77.447v77.447zm1147.614 3.652q-23.01 0-41.64-7.672c-12.42-5.358-23.02-12.542-31.79-21.553-8.76-9.255-15.58-19.728-20.45-31.418-4.63-11.933-6.94-24.476-6.94-37.627 0-18.266 4.01-34.949 12.05-50.049q12.42-22.65 35.07-36.166c15.34-9.255 33.37-13.882 54.07-13.882q31.41 0 53.7 13.882c14.86 9.011 26.18 21.067 33.97 36.166q12.06 22.285 12.06 48.222c0 2.923-.12 5.967-.37 9.133-.24 2.923-.48 5.358-.73 7.306h-147.95c.97 9.742 3.78 18.266 8.4 25.573q7.305 10.959 18.27 16.804c7.55 3.653 15.59 5.48 24.11 5.48 9.74 0 18.87-2.314 27.4-6.941 8.77-4.871 14.73-11.203 17.9-18.997l42.01 11.691c-4.63 9.741-11.33 18.387-20.09 25.937-8.53 7.55-18.63 13.517-30.32 17.9q-17.535 6.211-38.73 6.211m-50.05-114.709h100.1q-1.455-14.613-8.4-25.207c-4.39-7.307-10.23-12.908-17.54-16.805-7.3-4.14-15.46-6.21-24.47-6.21-8.77 0-16.81 2.07-24.11 6.21-7.07 3.897-12.91 9.498-17.54 16.805q-6.57 10.594-8.04 25.207m-326.69 114.709c-15.58 0-29.59-2.557-42.009-7.672q-18.631-8.037-31.783-21.919-12.785-13.882-19.727-31.782-6.94-17.9-6.941-37.628 0-20.092 6.941-37.993 6.942-17.9 19.727-31.782 13.152-13.883 31.783-21.554c12.419-5.358 26.429-8.037 42.009-8.037 15.59 0 29.47 2.68 41.65 8.037 12.42 5.114 23.01 12.3 31.78 21.554s15.34 19.849 19.73 31.782c4.63 11.934 6.94 24.598 6.94 37.993 0 13.152-2.31 25.694-6.94 37.628-4.39 11.933-10.96 22.528-19.73 31.782-8.52 9.255-19 16.561-31.42 21.919-12.42 5.115-26.42 7.672-42.01 7.672m-50.046-99.001q0 16.804 6.576 29.956 6.575 12.787 17.9 20.092c7.55 4.871 16.07 7.307 25.57 7.307 9.26 0 17.66-2.436 25.21-7.307 7.55-5.114 13.52-11.933 17.9-20.457 4.63-8.768 6.94-18.753 6.94-29.956 0-10.96-2.31-20.823-6.94-29.591-4.38-8.767-10.35-15.587-17.9-20.457s-15.95-7.307-25.21-7.307c-9.5 0-18.02 2.557-25.57 7.672q-11.325 7.306-17.9 20.458-6.576 12.786-6.576 29.59m-155.181 99.001q-22.285 0-39.454-9.864-16.805-10.229-26.303-27.398v111.421h-48.952V67.948h42.742v32.878q10.96-16.804 27.764-26.302 16.805-9.864 38.358-9.864 19.362 0 35.436 7.672 16.438 7.671 28.494 21.554 12.056 13.516 18.631 31.417 6.942 17.535 6.941 37.993 0 27.763-10.959 50.413-10.594 22.65-29.591 36.166-18.63 13.152-43.107 13.152m-16.439-41.646q11.325 0 20.457-4.749t15.709-12.786q6.94-8.403 10.229-18.632 3.653-10.594 3.653-21.918 0-12.056-4.018-22.285-3.654-10.229-10.96-17.9-7.306-8.037-17.17-12.421-9.498-4.384-20.823-4.384-6.94 0-14.247 2.557-6.94 2.193-13.517 6.576a58.8 58.8 0 0 0-11.69 10.229q-4.75 5.845-6.941 12.786v44.934a74.7 74.7 0 0 0 11.69 19.362q7.673 8.767 17.535 13.882 9.864 4.749 20.093 4.749M93.713 0h51.144l95.348 259.374H188.33l-24.111-64.66H73.62l-23.745 64.66H-2zm61.373 159.278L119.285 52.24 82.023 159.278z" opacity="0.1"/></svg>

<svg width="1920" height="259" viewBox="0 0 1920 259" fill="none" xmlns="http://www.w3.org/2000/svg">
<g opacity="0.1">
<path d="M1758.7 259.375V67.9492H1807.66V128.226H1851.13C1874.02 128.226 1891.56 134.071 1903.73 145.762C1915.91 157.452 1922 172.917 1922 192.157C1922 205.065 1919.44 216.633 1914.33 226.862C1909.21 237.091 1901.66 245.128 1891.68 250.973C1881.69 256.574 1869.27 259.375 1854.42 259.375H1758.7ZM1807.66 222.113H1846.74C1853.32 222.113 1858.68 220.773 1862.82 218.094C1867.2 215.415 1870.37 211.884 1872.32 207.5C1874.51 203.116 1875.6 198.124 1875.6 192.522C1875.6 187.164 1874.63 182.415 1872.68 178.275C1870.73 173.891 1867.57 170.481 1863.18 168.046C1859.04 165.367 1853.44 164.027 1846.38 164.027H1807.66V222.113Z" fill="white"/>
<path d="M1527.56 261.932V218.459C1533.4 218.216 1538.64 216.755 1543.27 214.076C1547.89 211.397 1551.91 206.891 1555.32 200.559C1558.98 193.983 1561.78 184.85 1563.72 173.16C1565.92 161.47 1567.38 146.492 1568.11 128.226L1570.67 67.9492H1714.24V259.375H1665.28V110.691H1613.77L1613.04 132.976C1612.07 158.061 1609.63 178.884 1605.74 195.445C1601.84 212.006 1596.36 225.157 1589.3 234.899C1582.48 244.397 1573.95 251.216 1563.72 255.356C1553.5 259.497 1541.44 261.689 1527.56 261.932Z" fill="white"/>
<path d="M1167.92 259.375V67.9492H1294.68V110.691H1216.87V259.375H1167.92Z" fill="white"/>
<path d="M468.312 305.77V216.633H473.427C478.298 216.633 482.803 215.293 486.944 212.614C491.327 209.935 495.102 205.43 498.268 199.098C501.678 192.522 504.357 183.511 506.305 172.064C508.497 160.618 509.959 146.005 510.689 128.226L512.881 67.9492H656.45V216.633H683.118V305.77H640.376V259.375H511.42V305.77H468.312ZM535.165 216.633H607.498V109.23H555.623L554.527 132.976C553.796 149.049 552.579 162.688 550.874 173.891C549.413 184.85 547.343 193.862 544.664 200.924C542.228 207.744 539.062 212.98 535.165 216.633Z" fill="white"/>
<path d="M263.906 259.375V67.9492H312.859V141.012H390.306V67.9492H439.258V259.375H390.306V181.928H312.859V259.375H263.906Z" fill="white"/>
<path d="M1411.52 263.027C1396.18 263.027 1382.3 260.47 1369.88 255.355C1357.46 249.997 1346.86 242.813 1338.09 233.802C1329.33 224.547 1322.51 214.074 1317.64 202.384C1313.01 190.451 1310.7 177.908 1310.7 164.757C1310.7 146.491 1314.71 129.808 1322.75 114.708C1331.03 99.6087 1342.72 87.5533 1357.82 78.5422C1373.16 69.2875 1391.19 64.6602 1411.89 64.6602C1432.83 64.6602 1450.73 69.2875 1465.59 78.5422C1480.45 87.5533 1491.77 99.6087 1499.56 114.708C1507.6 129.565 1511.62 145.639 1511.62 162.93C1511.62 165.853 1511.5 168.897 1511.25 172.063C1511.01 174.986 1510.77 177.421 1510.52 179.369H1362.57C1363.54 189.111 1366.35 197.635 1370.97 204.942C1375.84 212.248 1381.93 217.849 1389.24 221.746C1396.79 225.399 1404.83 227.226 1413.35 227.226C1423.09 227.226 1432.22 224.912 1440.75 220.285C1449.52 215.414 1455.48 209.082 1458.65 201.288L1500.66 212.979C1496.03 222.72 1489.33 231.366 1480.57 238.916C1472.04 246.466 1461.94 252.433 1450.25 256.816C1438.56 260.957 1425.65 263.027 1411.52 263.027ZM1361.47 148.318H1461.57C1460.6 138.576 1457.8 130.174 1453.17 123.111C1448.78 115.804 1442.94 110.203 1435.63 106.306C1428.33 102.166 1420.17 100.096 1411.16 100.096C1402.39 100.096 1394.35 102.166 1387.05 106.306C1379.98 110.203 1374.14 115.804 1369.51 123.111C1365.13 130.174 1362.45 138.576 1361.47 148.318Z" fill="white"/>
<path d="M1034.78 263.027C1019.2 263.027 1005.19 260.47 992.771 255.355C980.35 249.997 969.756 242.691 960.988 233.436C952.464 224.182 945.889 213.587 941.261 201.654C936.634 189.72 934.32 177.178 934.32 164.026C934.32 150.631 936.634 137.967 941.261 126.033C945.889 114.1 952.464 103.505 960.988 94.2508C969.756 84.9961 980.35 77.8115 992.771 72.6971C1005.19 67.3391 1019.2 64.6602 1034.78 64.6602C1050.37 64.6602 1064.25 67.3391 1076.43 72.6971C1088.85 77.8115 1099.44 84.9961 1108.21 94.2508C1116.98 103.505 1123.55 114.1 1127.94 126.033C1132.57 137.967 1134.88 150.631 1134.88 164.026C1134.88 177.178 1132.57 189.72 1127.94 201.654C1123.55 213.587 1116.98 224.182 1108.21 233.436C1099.69 242.691 1089.21 249.997 1076.79 255.355C1064.37 260.47 1050.37 263.027 1034.78 263.027ZM984.734 164.026C984.734 175.229 986.926 185.214 991.31 193.982C995.693 202.506 1001.66 209.204 1009.21 214.074C1016.76 218.945 1025.28 221.381 1034.78 221.381C1044.04 221.381 1052.44 218.945 1059.99 214.074C1067.54 208.96 1073.51 202.141 1077.89 193.617C1082.52 184.849 1084.83 174.864 1084.83 163.661C1084.83 152.701 1082.52 142.838 1077.89 134.07C1073.51 125.303 1067.54 118.483 1059.99 113.613C1052.44 108.742 1044.04 106.306 1034.78 106.306C1025.28 106.306 1016.76 108.863 1009.21 113.978C1001.66 118.849 995.693 125.668 991.31 134.436C986.926 142.96 984.734 152.823 984.734 164.026Z" fill="white"/>
<path d="M829.553 263.027C814.697 263.027 801.545 259.739 790.099 253.163C778.896 246.344 770.128 237.211 763.796 225.765V337.186H714.844V67.948H757.586V100.826C764.892 89.6234 774.147 80.8558 785.35 74.5237C796.553 67.948 809.339 64.6602 823.708 64.6602C836.616 64.6602 848.428 67.2174 859.144 72.3318C870.103 77.4462 879.601 84.6308 887.638 93.8855C895.675 102.897 901.886 113.369 906.269 125.303C910.897 136.993 913.21 149.657 913.21 163.296C913.21 181.805 909.557 198.609 902.251 213.709C895.188 228.809 885.325 240.864 872.66 249.875C860.24 258.643 845.87 263.027 829.553 263.027ZM813.114 221.381C820.664 221.381 827.483 219.798 833.571 216.632C839.66 213.466 844.896 209.204 849.28 203.846C853.907 198.244 857.317 192.034 859.509 185.214C861.944 178.152 863.162 170.845 863.162 163.296C863.162 155.259 861.823 147.83 859.144 141.011C856.708 134.192 853.055 128.225 848.184 123.111C843.313 117.753 837.59 113.613 831.014 110.69C824.682 107.767 817.741 106.306 810.191 106.306C805.564 106.306 800.815 107.159 795.944 108.863C791.317 110.325 786.811 112.517 782.427 115.439C778.043 118.362 774.147 121.771 770.737 125.668C767.571 129.565 765.257 133.827 763.796 138.454V183.388C766.719 190.451 770.615 196.905 775.486 202.75C780.601 208.595 786.446 213.222 793.021 216.632C799.597 219.798 806.295 221.381 813.114 221.381Z" fill="white"/>
<path d="M93.7128 0H144.857L240.205 259.374H188.33L164.219 194.714H73.6204L49.8749 259.374H-2L93.7128 0ZM155.086 159.278L119.285 52.2402L82.0227 159.278H155.086Z" fill="white"/>
</g>
</svg>
